pig-variant-outline.svg

<svg fill="currentColor" viewBox="0 0 24 24"><path d="M15 10c0-.55.45-1 1-1s1 .45 1 1-.45 1-1 1-1-.45-1-1m7-2.5v6.97l-2.82.94L17.5 21H12v-2h-2v2H4.5S2 12.54 2 9.5 4.46 4 7.5 4h5c.91-1.21 2.36-2 4-2a1.498 1.498 0 0 1 1.38 2.08c-.14.34-.26.73-.32 1.15l2.27 2.27zm-2 2h-1L15.5 6c0-.65.09-1.29.26-1.91-.97.25-1.76.97-2.09 1.91H7.5C5.57 6 4 7.57 4 9.5c0 1.88 1.22 6.65 2 9.5h2v-2h6v2h2l1.56-5.15 2.44-.82z"/></svg>

<svg  viewBox="0 0 24 24" fill="currentColor"><path  d="M15 10C15 9.45 15.45 9 16 9C16.55 9 17 9.45 17 10S16.55 11 16 11 15 10.55 15 10M22 7.5V14.47L19.18 15.41L17.5 21H12V19H10V21H4.5C4.5 21 2 12.54 2 9.5S4.46 4 7.5 4H12.5C13.41 2.79 14.86 2 16.5 2C17.33 2 18 2.67 18 3.5C18 3.71 17.96 3.9 17.88 4.08C17.74 4.42 17.62 4.81 17.56 5.23L19.83 7.5H22M20 9.5H19L15.5 6C15.5 5.35 15.59 4.71 15.76 4.09C14.79 4.34 14 5.06 13.67 6H7.5C5.57 6 4 7.57 4 9.5C4 11.38 5.22 16.15 6 19H8V17H14V19H16L17.56 13.85L20 13.03V9.5Z"/></svg>
